src/assets/spades_5.svg

<?xml version="1.0" encoding="UTF-8"?>
<svg xmlns="http://www.w3.org/2000/svg" xmlns:xlink="http://www.w3.org/1999/xlink" width="99px" height="140px" viewBox="0 0 99 140" version="1.1">
<g id="surface1">
<path style="fill-rule:nonzero;fill:rgb(100%,100%,100%);fill-opacity:1;stroke-width:0.755906;stroke-linecap:butt;stroke-linejoin:miter;stroke:rgb(50.196078%,50.196078%,50.196078%);stroke-opacity:1;stroke-miterlimit:4;" d="M 9.297585 719.743103 L 224.702415 719.743103 C 229.632812 719.743103 233.621449 723.747651 233.621449 728.681329 L 233.621449 1043.042991 C 233.621449 1047.976669 229.632812 1051.981217 224.702415 1051.981217 L 9.297585 1051.981217 C 4.367188 1051.981217 0.378551 1047.976669 0.378551 1043.042991 L 0.378551 728.681329 C 0.378551 723.747651 4.367188 719.743103 9.297585 719.743103 Z M 9.297585 719.743103 " transform="matrix(0.423077,0,0,0.42042,0,-302.434542)"/>
<path style=" stroke:none;fill-rule:nonzero;fill:rgb(0%,0%,0%);fill-opacity:1;" d="M 5.457031 25.789062 C 5.457031 25.554688 5.445312 25.386719 5.445312 25.152344 C 5.929688 25.152344 6.457031 25.152344 6.945312 25.152344 C 6.945312 24.597656 6.945312 24.558594 6.945312 24 C 5.996094 24.03125 4.96875 24.101562 4.078125 23.710938 C 3.390625 23.335938 3.199219 22.464844 3.339844 21.746094 C 3.457031 20.933594 3.910156 20.214844 4.503906 19.660156 C 5.273438 18.84375 6.253906 18.289062 7.277344 17.847656 C 8.324219 18.296875 9.328125 18.867188 10.105469 19.707031 C 10.808594 20.363281 11.277344 21.289062 11.261719 22.261719 C 11.277344 22.960938 10.839844 23.699219 10.121094 23.851562 C 9.316406 24.074219 8.5 24.035156 7.671875 24 C 7.671875 24.558594 7.671875 24.597656 7.671875 25.152344 C 8.160156 25.152344 8.605469 25.152344 9.09375 25.152344 C 9.09375 25.386719 9.105469 25.554688 9.105469 25.789062 C 7.992188 25.78125 6.660156 25.78125 5.457031 25.789062 Z M 5.457031 25.789062 "/>
<path style=" stroke:none;fill-rule:nonzero;fill:rgb(0%,0%,0%);fill-opacity:1;" d="M 89.898438 114.210938 C 89.898438 114.445312 89.886719 114.613281 89.886719 114.847656 C 90.371094 114.847656 90.898438 114.847656 91.386719 114.847656 C 91.386719 115.402344 91.386719 115.441406 91.386719 116 C 90.4375 115.96875 89.410156 115.898438 88.519531 116.289062 C 87.832031 116.664062 87.640625 117.535156 87.78125 118.253906 C 87.898438 119.066406 88.351562 119.785156 88.945312 120.339844 C 89.714844 121.15625 90.695312 121.710938 91.71875 122.152344 C 92.765625 121.703125 93.769531 121.132812 94.546875 120.292969 C 95.25 119.636719 95.71875 118.710938 95.703125 117.738281 C 95.71875 117.039062 95.28125 116.300781 94.5625 116.148438 C 93.757812 115.925781 92.941406 115.964844 92.113281 116 C 92.113281 115.441406 92.113281 115.402344 92.113281 114.847656 C 92.601562 114.847656 93.046875 114.847656 93.535156 114.847656 C 93.535156 114.613281 93.546875 114.445312 93.546875 114.210938 C 92.433594 114.21875 91.101562 114.21875 89.898438 114.210938 Z M 89.898438 114.210938 "/>
<path style=" stroke:none;fill-rule:nonzero;fill:rgb(0%,0%,0%);fill-opacity:1;" d="M 19.339844 39.820312 C 19.339844 39.117188 19.300781 38.613281 19.300781 37.910156 C 20.757812 37.910156 22.339844 37.910156 23.796875 37.910156 C 23.796875 36.242188 23.796875 36.125 23.796875 34.457031 C 20.949219 34.550781 17.867188 34.757812 15.199219 33.589844 C 13.136719 32.464844 12.566406 29.84375 12.984375 27.691406 C 13.339844 25.257812 14.699219 23.101562 16.472656 21.4375 C 18.78125 18.984375 21.726562 17.328125 24.800781 15.992188 C 27.9375 17.347656 30.949219 19.058594 33.285156 21.578125 C 35.394531 23.546875 36.796875 26.324219 36.753906 29.234375 C 36.796875 31.335938 35.488281 33.554688 33.328125 34.015625 C 30.914062 34.679688 28.46875 34.5625 25.988281 34.457031 C 25.988281 36.125 25.988281 36.242188 25.988281 37.910156 C 27.445312 37.910156 28.785156 37.910156 30.242188 37.910156 C 30.242188 38.613281 30.28125 39.117188 30.28125 39.820312 C 26.941406 39.796875 22.945312 39.796875 19.339844 39.820312 Z M 19.339844 39.820312 "/>
<path style=" stroke:none;fill-rule:nonzero;fill:rgb(0%,0%,0%);fill-opacity:1;" d="M 68.730469 39.820312 C 68.730469 39.117188 68.691406 38.613281 68.691406 37.910156 C 70.148438 37.910156 71.730469 37.910156 73.1875 37.910156 C 73.1875 36.242188 73.1875 36.125 73.1875 34.457031 C 70.339844 34.550781 67.257812 34.757812 64.589844 33.589844 C 62.527344 32.464844 61.957031 29.84375 62.375 27.691406 C 62.730469 25.257812 64.089844 23.101562 65.863281 21.4375 C 68.171875 18.984375 71.117188 17.328125 74.191406 15.992188 C 77.328125 17.347656 80.339844 19.058594 82.675781 21.578125 C 84.78125 23.546875 86.1875 26.324219 86.144531 29.234375 C 86.1875 31.335938 84.878906 33.554688 82.71875 34.015625 C 80.304688 34.679688 77.859375 34.5625 75.378906 34.457031 C 75.378906 36.125 75.378906 36.242188 75.378906 37.910156 C 76.835938 37.910156 78.171875 37.910156 79.632812 37.910156 C 79.632812 38.613281 79.671875 39.117188 79.671875 39.820312 C 76.332031 39.796875 72.335938 39.796875 68.730469 39.820312 Z M 68.730469 39.820312 "/>
<path style=" stroke:none;fill-rule:nonzero;fill:rgb(0%,0%,0%);fill-opacity:1;" d="M 44.035156 81.914062 C 44.035156 81.210938 43.996094 80.707031 43.996094 80.003906 C 45.453125 80.003906 47.035156 80.003906 48.492188 80.003906 C 48.492188 78.335938 48.492188 78.21875 48.492188 76.550781 C 45.644531 76.644531 42.5625 76.851562 39.894531 75.683594 C 37.832031 74.558594 37.261719 71.9375 37.679688 69.785156 C 38.035156 67.351562 39.394531 65.191406 41.167969 63.53125 C 43.476562 61.078125 46.421875 59.417969 49.496094 58.085938 C 52.632812 59.441406 55.644531 61.152344 57.980469 63.671875 C 60.089844 65.640625 61.492188 68.417969 61.449219 71.328125 C 61.492188 73.429688 60.183594 75.648438 58.023438 76.105469 C 55.609375 76.773438 53.164062 76.65625 50.683594 76.550781 C 50.683594 78.21875 50.683594 78.335938 50.683594 80.003906 C 52.140625 80.003906 53.480469 80.003906 54.9375 80.003906 C 54.9375 80.707031 54.976562 81.210938 54.976562 81.914062 C 51.636719 81.890625 47.640625 81.890625 44.035156 81.914062 Z M 44.035156 81.914062 "/>
<path style=" stroke:none;fill-rule:nonzero;fill:rgb(0%,0%,0%);fill-opacity:1;" d="M 19.339844 100.179688 C 19.339844 100.882812 19.300781 101.386719 19.300781 102.089844 C 20.757812 102.089844 22.339844 102.089844 23.796875 102.089844 C 23.796875 103.757812 23.796875 103.875 23.796875 105.542969 C 20.949219 105.449219 17.867188 105.242188 15.199219 106.410156 C 13.136719 107.535156 12.566406 110.15625 12.984375 112.308594 C 13.339844 114.742188 14.699219 116.898438 16.472656 118.5625 C 18.78125 121.015625 21.726562 122.671875 24.800781 124.007812 C 27.9375 122.652344 30.949219 120.941406 33.285156 118.421875 C 35.394531 116.453125 36.796875 113.675781 36.753906 110.765625 C 36.796875 108.664062 35.488281 106.445312 33.328125 105.984375 C 30.914062 105.320312 28.46875 105.4375 25.988281 105.542969 C 25.988281 103.875 25.988281 103.757812 25.988281 102.089844 C 27.445312 102.089844 28.785156 102.089844 30.242188 102.089844 C 30.242188 101.386719 30.28125 100.882812 30.28125 100.179688 C 26.941406 100.203125 22.945312 100.203125 19.339844 100.179688 Z M 19.339844 100.179688 "/>
<path style=" stroke:none;fill-rule:nonzero;fill:rgb(0%,0%,0%);fill-opacity:1;" d="M 68.730469 100.179688 C 68.730469 100.882812 68.691406 101.386719 68.691406 102.089844 C 70.148438 102.089844 71.730469 102.089844 73.1875 102.089844 C 73.1875 103.757812 73.1875 103.875 73.1875 105.542969 C 70.339844 105.449219 67.257812 105.242188 64.589844 106.410156 C 62.527344 107.535156 61.957031 110.15625 62.375 112.308594 C 62.730469 114.742188 64.089844 116.898438 65.863281 118.5625 C 68.171875 121.015625 71.117188 122.671875 74.191406 124.007812 C 77.328125 122.652344 80.339844 120.941406 82.675781 118.421875 C 84.78125 116.453125 86.1875 113.675781 86.144531 110.765625 C 86.1875 108.664062 84.878906 106.445312 82.71875 105.984375 C 80.304688 105.320312 77.859375 105.4375 75.378906 105.542969 C 75.378906 103.875 75.378906 103.757812 75.378906 102.089844 C 76.835938 102.089844 78.171875 102.089844 79.632812 102.089844 C 79.632812 101.386719 79.671875 100.882812 79.671875 100.179688 C 76.332031 100.203125 72.335938 100.203125 68.730469 100.179688 Z M 68.730469 100.179688 "/>
<path style=" stroke:none;fill-rule:nonzero;fill:rgb(0%,0%,0%);fill-opacity:1;" d="M 11.261719 11.179688 C 11.261719 12.410156 10.890625 13.386719 10.148438 14.113281 C 9.410156 14.835938 8.425781 15.199219 7.203125 15.199219 C 6.027344 15.199219 5.09375 14.910156 4.410156 14.335938 C 3.667969 13.71875 3.296875 12.832031 3.296875 11.675781 C 3.296875 11.488281 3.445312 11.394531 3.738281 11.394531 L 4.8125 11.394531 C 4.929688 11.394531 5.035156 11.410156 5.132812 11.445312 C 5.167969 11.5 5.1875 11.570312 5.199219 11.660156 C 5.292969 12.277344 5.46875 12.722656 5.734375 12.992188 C 6.027344 13.292969 6.480469 13.445312 7.09375 13.445312 C 7.707031 13.445312 8.203125 13.230469 8.578125 12.792969 C 8.933594 12.382812 9.113281 11.867188 9.113281 11.246094 C 9.113281 9.714844 8.480469 8.949219 7.21875 8.949219 C 6.757812 8.949219 6.296875 9.109375 5.832031 9.425781 L 4.476562 9.425781 C 4.351562 9.425781 4.230469 9.410156 4.117188 9.378906 C 4.0625 9.324219 4.035156 9.261719 4.035156 9.1875 C 4.035156 8.410156 4.074219 7.425781 4.15625 6.242188 C 4.230469 5.253906 4.300781 4.269531 4.371094 3.285156 L 10.523438 3.285156 C 10.667969 3.285156 10.792969 3.308594 10.910156 3.351562 C 10.957031 3.460938 10.984375 3.84375 10.984375 4.503906 C 10.984375 4.613281 10.976562 4.703125 10.96875 4.777344 C 10.929688 4.953125 10.769531 5.039062 10.492188 5.039062 L 6.035156 5.039062 C 6.054688 5.335938 6.027344 5.789062 5.960938 6.398438 C 5.898438 7 5.871094 7.453125 5.890625 7.746094 C 6.453125 7.398438 7.039062 7.222656 7.652344 7.222656 C 8.777344 7.222656 9.671875 7.605469 10.328125 8.375 C 10.949219 9.097656 11.261719 10.035156 11.261719 11.179688 Z M 11.261719 11.179688 "/>
<path style=" stroke:none;fill-rule:nonzero;fill:rgb(0%,0%,0%);fill-opacity:1;" d="M 87.738281 128.820312 C 87.738281 127.589844 88.109375 126.613281 88.851562 125.886719 C 89.589844 125.164062 90.574219 124.800781 91.796875 124.800781 C 92.972656 124.800781 93.90625 125.089844 94.589844 125.664062 C 95.332031 126.28125 95.703125 127.167969 95.703125 128.324219 C 95.703125 128.511719 95.554688 128.605469 95.261719 128.605469 L 94.1875 128.605469 C 94.070312 128.605469 93.964844 128.589844 93.867188 128.554688 C 93.832031 128.5 93.8125 128.429688 93.800781 128.339844 C 93.707031 127.722656 93.53125 127.277344 93.265625 127.007812 C 92.972656 126.707031 92.519531 126.554688 91.90625 126.554688 C 91.292969 126.554688 90.796875 126.769531 90.421875 127.203125 C 90.066406 127.617188 89.886719 128.132812 89.886719 128.753906 C 89.886719 130.285156 90.519531 131.050781 91.78125 131.050781 C 92.242188 131.050781 92.703125 130.890625 93.167969 130.574219 L 94.523438 130.574219 C 94.648438 130.574219 94.769531 130.589844 94.882812 130.621094 C 94.9375 130.675781 94.964844 130.738281 94.964844 130.8125 C 94.964844 131.589844 94.925781 132.574219 94.84375 133.757812 C 94.769531 134.746094 94.699219 135.730469 94.628906 136.714844 L 88.476562 136.714844 C 88.332031 136.714844 88.207031 136.691406 88.089844 136.648438 C 88.042969 136.539062 88.015625 136.15625 88.015625 135.496094 C 88.015625 135.386719 88.023438 135.296875 88.03125 135.222656 C 88.070312 135.046875 88.230469 134.960938 88.507812 134.960938 L 92.964844 134.960938 C 92.945312 134.664062 92.972656 134.210938 93.039062 133.601562 C 93.101562 133 93.128906 132.546875 93.113281 132.25 C 92.546875 132.601562 91.960938 132.777344 91.347656 132.777344 C 90.222656 132.777344 89.328125 132.394531 88.671875 131.625 C 88.050781 130.902344 87.738281 129.964844 87.738281 128.820312 Z M 87.738281 128.820312 "/>
</g>
</svg>

<svg xmlns="http://www.w3.org/2000/svg" width="99" height="140"><path d="M9.298 719.743h215.404c4.93 0 8.92 4.005 8.92 8.938v314.362c0 4.934-3.99 8.938-8.92 8.938H9.298c-4.93 0-8.92-4.004-8.92-8.938V728.681c0-4.933 3.99-8.938 8.92-8.938Zm0 0" style="fill-rule:nonzero;fill:#fff;fill-opacity:1;stroke-width:.755906;stroke-linecap:butt;stroke-linejoin:miter;stroke:gray;stroke-opacity:1;stroke-miterlimit:4" transform="matrix(.42308 0 0 .42042 0 -302.435)"/><path d="M5.457 25.79c0-.235-.012-.403-.012-.638h1.5V24c-.949.031-1.976.102-2.867-.29-.687-.374-.879-1.245-.738-1.964.117-.812.57-1.531 1.164-2.086.77-.816 1.75-1.37 2.773-1.812 1.047.449 2.051 1.02 2.828 1.859.704.656 1.172 1.582 1.157 2.555.015.699-.422 1.437-1.14 1.59-.806.222-1.622.183-2.45.148v1.152h1.422c0 .235.011.403.011.637a283.894 283.894 0 0 0-3.648 0ZM89.898 114.21c0 .235-.011.403-.011.638h1.5V116c-.95-.031-1.977-.102-2.867.29-.688.374-.88 1.245-.739 1.964.117.812.57 1.531 1.164 2.086.77.816 1.75 1.37 2.774 1.812 1.047-.449 2.05-1.02 2.828-1.859.703-.656 1.172-1.582 1.156-2.555.016-.699-.422-1.437-1.14-1.59-.805-.222-1.622-.183-2.45-.148v-1.152h1.422c0-.235.012-.403.012-.637-1.113.008-2.445.008-3.649 0ZM19.34 39.82c0-.703-.04-1.207-.04-1.91h4.497v-3.453c-2.848.094-5.93.3-8.598-.867-2.062-1.125-2.633-3.746-2.215-5.899.356-2.433 1.715-4.59 3.489-6.253 2.308-2.454 5.254-4.11 8.328-5.446 3.137 1.356 6.148 3.067 8.484 5.586 2.11 1.969 3.512 4.746 3.469 7.656.043 2.102-1.266 4.32-3.426 4.782-2.414.664-4.86.547-7.34.441v3.453h4.254c0 .703.04 1.207.04 1.91-3.34-.023-7.337-.023-10.942 0ZM68.73 39.82c0-.703-.039-1.207-.039-1.91h4.496v-3.453c-2.847.094-5.93.3-8.597-.867-2.063-1.125-2.633-3.746-2.215-5.899.355-2.433 1.715-4.59 3.488-6.253 2.309-2.454 5.254-4.11 8.328-5.446 3.137 1.356 6.149 3.067 8.485 5.586 2.105 1.969 3.511 4.746 3.469 7.656.043 2.102-1.266 4.32-3.426 4.782-2.414.664-4.86.547-7.34.441v3.453h4.254c0 .703.039 1.207.039 1.91-3.34-.023-7.336-.023-10.942 0ZM44.035 81.914c0-.703-.039-1.207-.039-1.91h4.496V76.55c-2.847.094-5.93.3-8.597-.867-2.063-1.125-2.633-3.746-2.215-5.899.355-2.433 1.715-4.594 3.488-6.254 2.309-2.453 5.254-4.113 8.328-5.445 3.137 1.355 6.149 3.066 8.484 5.586 2.11 1.969 3.512 4.746 3.47 7.656.042 2.102-1.266 4.32-3.427 4.777-2.414.668-4.859.551-7.34.446v3.453h4.255c0 .703.039 1.207.039 1.91-3.34-.023-7.336-.023-10.942 0ZM19.34 100.18c0 .703-.04 1.207-.04 1.91h4.497v3.453c-2.848-.094-5.93-.3-8.598.867-2.062 1.125-2.633 3.746-2.215 5.899.356 2.433 1.715 4.59 3.489 6.254 2.308 2.453 5.254 4.109 8.328 5.445 3.137-1.356 6.148-3.067 8.484-5.586 2.11-1.969 3.512-4.746 3.469-7.656.043-2.102-1.266-4.32-3.426-4.782-2.414-.664-4.86-.546-7.34-.441v-3.453h4.254c0-.703.04-1.207.04-1.91-3.34.023-7.337.023-10.942 0ZM68.73 100.18c0 .703-.039 1.207-.039 1.91h4.496v3.453c-2.847-.094-5.93-.3-8.597.867-2.063 1.125-2.633 3.746-2.215 5.899.355 2.433 1.715 4.59 3.488 6.254 2.309 2.453 5.254 4.109 8.328 5.445 3.137-1.356 6.149-3.067 8.485-5.586 2.105-1.969 3.511-4.746 3.469-7.656.043-2.102-1.266-4.32-3.426-4.782-2.414-.664-4.86-.546-7.34-.441v-3.453h4.254c0-.703.039-1.207.039-1.91-3.34.023-7.336.023-10.942 0ZM11.262 11.18c0 1.23-.371 2.207-1.114 2.933-.738.723-1.722 1.086-2.945 1.086-1.176 0-2.11-.289-2.793-.863-.742-.617-1.113-1.504-1.113-2.66 0-.188.148-.281.441-.281h1.075c.117 0 .222.015.32.05a.516.516 0 0 1 .066.215c.094.617.27 1.063.535 1.332.293.301.746.453 1.36.453.613 0 1.11-.215 1.484-.652.356-.41.535-.926.535-1.547 0-1.531-.633-2.297-1.894-2.297-.461 0-.922.16-1.387.477H4.477c-.125 0-.247-.016-.36-.047a.26.26 0 0 1-.082-.191c0-.778.04-1.762.121-2.946.074-.988.145-1.972.215-2.957h6.152c.145 0 .27.024.387.067.047.109.074.492.074 1.152 0 .11-.007.2-.015.273-.04.176-.2.262-.477.262H6.035c.02.297-.008.75-.074 1.36-.063.601-.09 1.054-.07 1.347.562-.348 1.148-.523 1.761-.523 1.125 0 2.02.382 2.676 1.152.621.723.934 1.66.934 2.805ZM87.738 128.82c0-1.23.371-2.207 1.114-2.933.738-.723 1.722-1.086 2.945-1.086 1.176 0 2.11.289 2.793.863.742.617 1.113 1.504 1.113 2.66 0 .188-.148.281-.441.281h-1.075a.934.934 0 0 1-.32-.05.516.516 0 0 1-.066-.215c-.094-.617-.27-1.063-.535-1.332-.293-.301-.746-.453-1.36-.453-.613 0-1.11.215-1.484.648-.356.414-.535.93-.535 1.55 0 1.532.633 2.298 1.894 2.298.461 0 .922-.16 1.387-.477h1.355c.125 0 .247.016.36.047a.26.26 0 0 1 .082.191c0 .778-.04 1.762-.121 2.946-.074.988-.145 1.972-.215 2.957h-6.152a1.1 1.1 0 0 1-.387-.067c-.047-.109-.074-.492-.074-1.152 0-.11.007-.2.015-.273.04-.176.2-.262.477-.262h4.457c-.02-.297.008-.75.074-1.36.063-.601.09-1.054.074-1.351-.566.352-1.152.527-1.765.527-1.125 0-2.02-.382-2.676-1.152-.621-.723-.934-1.66-.934-2.805Zm0 0" style="stroke:none;fill-rule:nonzero;fill:#000;fill-opacity:1"/></svg>
